communes/588.svg

<?xml version="1.0" encoding="UTF-8" standalone="no"?>
<svg
   xmlns:dc="http://purl.org/dc/elements/1.1/"
   xmlns:cc="http://web.resource.org/cc/"
   xmlns:rdf="http://www.w3.org/1999/02/22-rdf-syntax-ns#"
   xmlns:svg="http://www.w3.org/2000/svg"
   xmlns="http://www.w3.org/2000/svg"
   xmlns:xlink="http://www.w3.org/1999/xlink"
   xmlns:sodipodi="http://sodipodi.sourceforge.net/DTD/sodipodi-0.dtd"
   xmlns:inkscape="http://www.inkscape.org/namespaces/inkscape"
   height="763"
   width="603"
   version="1.0"
   id="svg20"
   sodipodi:version="0.32"
   inkscape:version="0.45.1"
   sodipodi:docname="Niederried bei Interlaken-coat of arms.svg"
   sodipodi:docbase="C:\Users\Camilo\Documents\Escudos de Suiza"
   inkscape:output_extension="org.inkscape.output.svg.inkscape">
  <metadata
     id="metadata31">
    <rdf:RDF>
      <cc:Work
         rdf:about="">
        <dc:format>image/svg+xml</dc:format>
        <dc:type
           rdf:resource="http://purl.org/dc/dcmitype/StillImage" />
        <dc:date>07-AUG-2006</dc:date>
        <dc:creator>
          <cc:Agent>
            <dc:title>Jérôme BLUM (wagner51)</dc:title>
          </cc:Agent>
        </dc:creator>
        <cc:license
           rdf:resource="http://creativecommons.org/licenses/GPL/2.0/" />
        <dc:coverage />
        <dc:description>Gabarit pour le Projet:Blasons de WIkipédia</dc:description>
        <dc:subject>
          <rdf:Bag>
            <rdf:li>blason suisse modèle gabarit projet blasons</rdf:li>
          </rdf:Bag>
        </dc:subject>
        <dc:language>fr</dc:language>
        <dc:title>Gabrit d'un blason suisse</dc:title>
      </cc:Work>
      <cc:License
         rdf:about="http://creativecommons.org/licenses/GPL/2.0/">
        <cc:permits
           rdf:resource="http://web.resource.org/cc/Reproduction" />
        <cc:permits
           rdf:resource="http://web.resource.org/cc/Distribution" />
        <cc:requires
           rdf:resource="http://web.resource.org/cc/Notice" />
        <cc:permits
           rdf:resource="http://web.resource.org/cc/DerivativeWorks" />
        <cc:requires
           rdf:resource="http://web.resource.org/cc/ShareAlike" />
        <cc:requires
           rdf:resource="http://web.resource.org/cc/SourceCode" />
      </cc:License>
    </rdf:RDF>
  </metadata>
  <defs
     id="defs29">
    <linearGradient
       id="linearGradient2893">
      <stop
         style="stop-color:#ffffff;stop-opacity:0.3137255;"
         offset="0"
         id="stop2895" />
      <stop
         id="stop2897"
         offset="0.19"
         style="stop-color:#ffffff;stop-opacity:0.25098041;" />
      <stop
         style="stop-color:#6b6b6b;stop-opacity:0.1254902;"
         offset="0.60000002"
         id="stop2901" />
      <stop
         style="stop-color:#000000;stop-opacity:0.1254902;"
         offset="1"
         id="stop2899" />
    </linearGradient>
    <radialGradient
       inkscape:collect="always"
       xlink:href="#linearGradient2893"
       id="radialGradient3236"
       gradientUnits="userSpaceOnUse"
       gradientTransform="matrix(1.215027,1.531577e-24,1.464684e-23,1.266667,-839.1924,-490.4894)"
       cx="858.04236"
       cy="579.93323"
       fx="858.04236"
       fy="579.93323"
       r="300" />
  </defs>
  <sodipodi:namedview
     inkscape:window-height="750"
     inkscape:window-width="1280"
     inkscape:pageshadow="2"
     inkscape:pageopacity="0.0"
     guidetolerance="10.0"
     gridtolerance="10.0"
     objecttolerance="10.0"
     borderopacity="1.0"
     bordercolor="#666666"
     pagecolor="#ffffff"
     id="base"
     inkscape:zoom="0.67103539"
     inkscape:cx="301.5"
     inkscape:cy="381.5"
     inkscape:window-x="-8"
     inkscape:window-y="-8"
     inkscape:current-layer="layer2"
     showgrid="true"
     showguides="false" />
  <desc
     id="desc22">Coat of Arms of Canton of Freiburg (Fribourg)</desc>
  <g
     inkscape:groupmode="layer"
     id="layer1"
     inkscape:label="Fond écu"
     style="display:inline"
     sodipodi:insensitive="true">
    <path
       id="path1899"
       d="M 1.5,1.49998 L 1.5,460.3679 C 1.5,626.6785 135.81456,761.5 301.49999,761.5 C 467.18543,761.5 601.5,626.6785 601.5,460.3679 L 601.5,1.49998 L 1.5,1.49998 z "
       style="fill:#ffffff;fill-opacity:1" />
  </g>
  <g
     inkscape:groupmode="layer"
     id="layer2"
     inkscape:label="Meubles"
     style="display:inline"
     sodipodi:insensitive="true">
    <g
       style="display:inline"
       transform="matrix(4.2632212,0,0,4.2632212,-2658.4991,-2672.1713)"
       id="g10059">
      <path
         d="M 730.34362,636.09254 C 738.12769,628.89418 744.63881,637.62124 744.63881,637.62124 C 751.00069,635.55575 754.96998,640.81915 754.82819,646.28192 C 760.00343,645.55615 766.01253,657.82188 757.7665,661.43616 L 754.31277,679.90746 C 753.26657,685.61323 750.33215,689.11606 746.54627,691.62554 C 747.82563,696.48419 742.14947,702.57389 736.71808,701.62554 C 735.03941,710.13529 724.5801,710.90389 718.79735,707.31277 C 753.84428,689.23243 748.12596,662.46605 730.34362,636.09254 z "
         style="fill:#000000;fill-opacity:1;fill-rule:evenodd;stroke:#ffffff;stroke-width:1px;stroke-linecap:butt;stroke-linejoin:miter;stroke-opacity:1"
         id="path4235" />
      <path
         d="M 682.57712,685.40531 L 674.63554,677.75703 C 667.41039,671.28846 670.27277,670.14627 667.81324,666.29919 C 664.82631,661.62717 663.37053,663.98722 658.78514,658.24297 C 655.9558,654.69859 656.52811,651.10689 653.66365,647.63554 C 650.39353,643.67259 647.79419,643.12149 647.79419,643.12149 C 643.02365,643.22311 642.69192,647.03463 640.97189,650.18676 C 642.60389,646.93407 643.01518,643.2696 647.79419,643.12149 L 640.12149,628 C 639.04744,631.21033 638.4572,632.87116 638.1777,635.6727 L 644.39257,643.85041 L 638.1777,635.6727 L 634.02811,630.6727 C 633.47384,636.02449 631.32007,642.97579 634.02811,645.06527 L 640.97189,650.18676 L 642.93473,651.66365 L 639.75703,651.90662 L 639.63554,656.1777 C 645.87642,655.43318 648.24952,657.94172 650.48595,660.69176 C 655.57016,666.94359 652.9479,669.41979 655.36446,673.36446 C 659.02533,679.34028 660.91856,676.28802 663.90662,684.09337 C 666.15692,689.97157 668.62583,695.84302 672.04085,700.27519 L 682.57712,685.40531 z "
         style="fill:#000000;fill-opacity:1;fill-rule:evenodd;stroke:#ffffff;stroke-width:1px;stroke-linecap:butt;stroke-linejoin:miter;stroke-opacity:1"
         id="path3259" />
      <path
         d="M 727.57712,729.37446 C 723.72836,723.5506 719.8796,718.30917 716.03085,713.85904 C 715.89472,709.95301 716.67165,706.04699 713.96915,702.14096 C 720.96574,691.91722 726.86686,682.7695 726.37446,666.28192 C 719.18323,665.42617 715.55334,661.00907 714.31277,654.20265 C 715.64047,660.93796 719.14237,665.40849 726.37446,666.28192 C 730.66286,666.06723 733.87807,663.70616 737.2335,661.62554 C 729.72015,658.37347 717.83965,661.67212 716.6886,648.87661 C 717.84085,661.62473 729.74686,658.4508 737.2335,661.62554 L 724.51405,651.1777 C 723.88904,647.93659 723.12696,644.95403 720,643 C 723.10542,644.92553 723.96479,647.97409 724.51405,651.1777 C 762.23941,659.65739 753.18629,700.98833 734.65638,713.68723 C 742.89665,715.56251 750.62641,714.58163 752.81324,701.90662 C 757.02238,699.97936 759.87135,693.23884 758.66365,688.12149 C 762.46766,684.01239 762.54113,678.08099 759.87851,674.33635 C 763.40658,668.40104 760.70032,661.80043 755.48595,658.97189 C 755.45576,652.06715 751.91155,648.30654 745.72892,646.90662 C 744.73761,640.97954 740.01607,637.44376 733.54216,639.45784 C 726.58481,631.9822 719.82335,633.31584 715,638 C 708.67109,636.64867 699.51932,633.03881 695,638 C 688.37383,637.14959 674.01187,633.67242 674.39257,638.60743 C 672.50687,640.70456 670.99944,643.1043 672.30824,647.75703 C 683.62077,644.81544 690.68332,646.55972 689.39257,657.51405 L 672.30824,657.39257 C 673.61355,667.29116 685.80438,662.15735 693.1396,663.72892 C 694.44722,666.9417 696.91059,669.60616 700.48595,669.94378 C 705.29564,670.38288 709.85725,668.02395 712.18676,665.93473 C 709.87266,668.0137 705.29049,670.41598 700.48595,669.94378 C 685.81972,686.21688 674.98743,680.87756 670.60743,704.33635 L 679.75703,713.72892 L 689.51405,714.8223 L 679.75703,713.72892 L 670.60743,704.33635 C 668.96455,702.76434 667.53752,701.17346 666.68176,699.41974 C 665.87564,692.61169 662.44896,688.45549 657.33337,687.11302 C 654.18972,686.28804 651.02657,681.89869 650.0858,678.46139 C 648.05037,671.02459 645.67872,667.43942 641.57932,668 C 638.35041,669.6134 637.63832,673.12168 636.8223,676.64459 C 637.6279,673.08689 638.35092,669.64948 641.57932,668 L 632.81324,655.81324 C 631.98481,658.23516 631.39637,660.53708 631.21486,662.63554 L 638.66365,670.44878 L 631.21486,662.63554 L 628.36445,659.78513 C 628.24767,664.04075 625.08375,671.03877 628.05622,672.51405 L 636.8223,676.64459 L 637.81324,678.48594 L 634.7008,678.84117 L 634.6945,682.75346 C 639.60174,684.13122 641.49674,681.71347 643.28798,684.36993 C 643.28798,684.36993 645.75515,686.58325 648.54217,690.18676 C 650.70764,692.98663 650.81961,696.96305 653.15601,700.13083 C 655.24935,702.96905 658.85765,704.86481 660.36446,707.39257 C 665.44759,715.91979 666.88974,730.78758 678.54216,731.78514 L 690.48595,730.44878 L 678.54216,731.78514 L 692.59469,749.54627 C 703.03439,741.7369 713.14722,733.63699 727.57712,729.37446 z "
         style="fill:#000000;fill-opacity:1;fill-rule:evenodd;stroke:#ffffff;stroke-width:1px;stroke-linecap:butt;stroke-linejoin:miter;stroke-opacity:1"
         id="path2287" />
      <path
         d="M 690,653 C 680.70674,649.36733 667.28977,654.80684 664.14096,637.65638 C 658.93394,639.02585 652.91089,650.09761 665,653 C 675.38642,655.49361 690,653 690,653 z "
         style="fill:#e20909;fill-opacity:1;fill-rule:evenodd;stroke:#000000;stroke-width:1px;stroke-linecap:butt;stroke-linejoin:miter;stroke-opacity:1"
         id="path5206" />
      <path
         d="M 686.09338,662.51405 C 684.91331,666.26722 681.97313,667.13724 679.51405,667.51405 C 684.58073,669.92631 689.6509,668.05118 690.60743,662.51405 C 690.19229,665.12675 689.02087,668.19683 686.09338,669.84135 C 692.08669,669.85642 695.49872,667.2902 694.51406,662.75703 L 686.09338,662.51405 z "
         style="fill:#ffffff;fill-opacity:1;fill-rule:evenodd;stroke:#000000;stroke-width:1px;stroke-linecap:butt;stroke-linejoin:miter;stroke-opacity:1"
         id="path5208" />
      <path
         d="M 696,642 C 697.20116,641.22397 698.32906,641.17509 699.97189,641.51405 C 700.605,644.57011 702.36031,645.6062 704.60743,645.75703 C 703.55319,644.21185 703.07257,643.15261 703.60743,641.60743 C 706.53613,642.05223 709.09461,642.2656 711,645 C 707.06593,650.43496 698.47991,649.1757 696,642 z "
         style="fill:#ffffff;fill-opacity:1;fill-rule:evenodd;stroke:#000000;stroke-width:1px;stroke-linecap:butt;stroke-linejoin:miter;stroke-opacity:1"
         id="path6179" />
    </g>
    <path
       style="fill:#5ab532;fill-opacity:1;fill-rule:evenodd;stroke:#000000;stroke-width:4.04735088;stroke-miterlimit:4;stroke-dasharray:none;stroke-opacity:1;display:inline"
       d="M 9.59375,530.03125 C 39.61669,657.2605 150.02957,753.24488 284.03125,760.96875 L 318.96875,760.96875 C 452.97049,753.24488 563.38329,657.26051 593.40625,530.03125 L 9.59375,530.03125 z "
       id="rect8119" />
  </g>
  <g
     inkscape:groupmode="layer"
     id="layer3"
     inkscape:label="Reflet final"
     style="display:inline"
     sodipodi:insensitive="true">
    <path
       style="fill:url(#radialGradient3236);fill-opacity:1"
       d="M 1.5,1.5 L 1.5,460.3679 C 1.5,626.67854 135.81454,761.5 301.49993,761.5 C 467.1854,761.5 601.5,626.67854 601.5,460.3679 L 601.5,1.5 L 1.5,1.5 z "
       id="path2346" />
  </g>
  <g
     inkscape:groupmode="layer"
     id="layer4"
     inkscape:label="Contour final"
     style="display:inline"
     sodipodi:insensitive="true">
    <path
       style="fill:none;fill-opacity:1;stroke:#000000;stroke-width:3;stroke-miterlimit:4;stroke-dasharray:none;stroke-opacity:1"
       d="M 1.5,1.5 L 1.5,460.36794 C 1.5,626.67854 135.81454,761.5 301.49993,761.5 C 467.1854,761.5 601.5,626.67854 601.5,460.36794 L 601.5,1.5 L 1.5,1.5 z "
       id="path3239" />
  </g>
</svg>

<?xml version="1.0" encoding="UTF-8"?>
<svg version="1.0" viewBox="0 0 603 763" xmlns="http://www.w3.org/2000/svg" xmlns:cc="http://web.resource.org/cc/" xmlns:dc="http://purl.org/dc/elements/1.1/" xmlns:rdf="http://www.w3.org/1999/02/22-rdf-syntax-ns#" xmlns:xlink="http://www.w3.org/1999/xlink">
<metadata>
<rdf:RDF>
<cc:Work rdf:about="">
<dc:format>image/svg+xml</dc:format>
<dc:type rdf:resource="http://purl.org/dc/dcmitype/StillImage"/>
<dc:date>07-AUG-2006</dc:date>
<dc:creator>
<cc:Agent>
<dc:title>Jérôme BLUM (wagner51)</dc:title>
</cc:Agent>
</dc:creator>
<cc:license rdf:resource="http://creativecommons.org/licenses/GPL/2.0/"/>
<dc:coverage/>
<dc:description>Gabarit pour le Projet:Blasons de WIkipédia</dc:description>
<dc:subject>
<rdf:Bag>
<rdf:li>blason suisse modèle gabarit projet blasons</rdf:li>
</rdf:Bag>
</dc:subject>
<dc:language>fr</dc:language>
<dc:title>Gabrit d'un blason suisse</dc:title>
</cc:Work>
<cc:License rdf:about="http://creativecommons.org/licenses/GPL/2.0/">
<cc:permits rdf:resource="http://web.resource.org/cc/Reproduction"/>
<cc:permits rdf:resource="http://web.resource.org/cc/Distribution"/>
<cc:requires rdf:resource="http://web.resource.org/cc/Notice"/>
<cc:permits rdf:resource="http://web.resource.org/cc/DerivativeWorks"/>
<cc:requires rdf:resource="http://web.resource.org/cc/ShareAlike"/>
<cc:requires rdf:resource="http://web.resource.org/cc/SourceCode"/>
</cc:License>
</rdf:RDF>
</metadata>
<defs>
<radialGradient id="a" cx="858.04" cy="579.93" r="300" gradientTransform="matrix(1.215 1.5316e-24 1.4647e-23 1.2667 -839.19 -490.49)" gradientUnits="userSpaceOnUse">
<stop stop-color="#fff" stop-opacity=".31373" offset="0"/>
<stop stop-color="#fff" stop-opacity=".25098" offset=".19"/>
<stop stop-color="#6b6b6b" stop-opacity=".12549" offset=".6"/>
<stop stop-opacity=".12549" offset="1"/>
</radialGradient>
</defs>
<desc>Coat of Arms of Canton of Freiburg (Fribourg)</desc>
<g>
<path d="m1.5 1.5v458.87c0 166.31 134.31 301.13 300 301.13 165.69 0 300-134.82 300-301.13v-458.87h-600z" fill="#fff"/>
<g transform="matrix(4.2632 0 0 4.2632 -2658.5 -2672.2)" fill-rule="evenodd" stroke-width="1px">
<path d="m730.34 636.09c7.7841-7.1984 14.295 1.5287 14.295 1.5287 6.3619-2.0655 10.331 3.1979 10.189 8.6607 5.1752-0.72577 11.184 11.54 2.9383 15.154l-3.4537 18.471c-1.0462 5.7058-3.9806 9.2086-7.7665 11.718 1.2794 4.8586-4.3968 10.948-9.8282 10-1.6787 8.5098-12.138 9.2784-17.921 5.6872 35.047-18.08 29.329-44.847 11.546-71.22z" stroke="#fff"/>
<path d="m682.58 685.41-7.9416-7.6483c-7.2252-6.4686-4.3628-7.6108-6.8223-11.458-2.9869-4.672-4.4427-2.312-9.0281-8.0562-2.8293-3.5444-2.257-7.1361-5.1215-10.607-3.2701-3.963-5.8695-4.514-5.8695-4.514-4.7705 0.10162-5.1023 3.9131-6.8223 7.0653 1.632-3.2527 2.0433-6.9172 6.8223-7.0653l-7.6727-15.121c-1.074 3.2103-1.6643 4.8712-1.9438 7.6727l6.2149 8.1777-6.2149-8.1777-4.1496-5c-0.55427 5.3518-2.708 12.303 0 14.393l6.9438 5.1215 1.9628 1.4769-3.1777 0.24297-0.12149 4.2711c6.2409-0.74452 8.614 1.764 10.85 4.5141 5.0842 6.2518 2.462 8.728 4.8785 12.673 3.6609 5.9758 5.5541 2.9236 8.5422 10.729 2.2503 5.8782 4.7192 11.75 8.1342 16.182l10.536-14.87z" stroke="#fff"/>
<path d="m727.58 729.37c-3.8488-5.8239-7.6975-11.065-11.546-15.515-0.13613-3.906 0.6408-7.812-2.0617-11.718 6.9966-10.224 12.898-19.371 12.405-35.859-7.1912-0.85575-10.821-5.2728-12.062-12.079 1.3277 6.7353 4.8296 11.206 12.062 12.079 4.2884-0.21469 7.5036-2.5758 10.859-4.6564-7.5134-3.2521-19.394 0.04658-20.545-12.749 1.1522 12.748 13.058 9.5742 20.545 12.749l-12.719-10.448c-0.62501-3.2411-1.3871-6.2237-4.514-8.1777 3.1054 1.9255 3.9648 4.9741 4.514 8.1777 37.725 8.4797 28.672 49.811 10.142 62.51 8.2403 1.8753 15.97 0.8944 18.157-11.781 4.2091-1.9273 7.0581-8.6678 5.8504-13.785 3.804-4.1091 3.8775-10.04 1.2149-13.785 3.5281-5.9353 0.82181-12.536-4.3926-15.364-0.03019-6.9047-3.5744-10.665-9.757-12.065-0.99131-5.9271-5.7128-9.4629-12.187-7.4488-6.9574-7.4756-13.719-6.142-18.542-1.4578-6.3289-1.3513-15.481-4.9612-20 0-6.6262-0.85041-20.988-4.3276-20.607 0.60743-1.8857 2.0971-3.3931 4.4969-2.0843 9.1496 11.313-2.9416 18.375-1.1973 17.084 9.757l-17.084-0.12148c1.3053 9.8986 13.496 4.7648 20.831 6.3364 1.3076 3.2128 3.771 5.8772 7.3464 6.2149 4.8097 0.4391 9.3713-1.9198 11.701-4.009-2.3141 2.079-6.8963 4.4812-11.701 4.009-14.666 16.273-25.499 10.934-29.879 34.393l9.1496 9.3926 9.757 1.0934-9.757-1.0934-9.1496-9.3926c-1.6429-1.572-3.0699-3.1629-3.9257-4.9166-0.80612-6.808-4.2328-10.964-9.3484-12.307-3.1436-0.82498-6.3068-5.2143-7.2476-8.6516-2.0354-7.4368-4.4071-11.022-8.5065-10.461-3.2289 1.6134-3.941 5.1217-4.757 8.6446 0.8056-3.5577 1.5286-6.9951 4.757-8.6446l-8.7661-12.187c-0.82843 2.4219-1.4169 4.7238-1.5984 6.8223l7.4488 7.8132-7.4488-7.8132-2.8504-2.8504c-0.11678 4.2556-3.2807 11.254-0.30823 12.729l8.7661 4.1305 0.99094 1.8414-3.1124 0.35523-0.0063 3.9123c4.9072 1.3778 6.8022-1.04 8.5935 1.6165 0 0 2.4672 2.2133 5.2542 5.8168 2.1655 2.7999 2.2774 6.7763 4.6138 9.9441 2.0933 2.8382 5.7016 4.734 7.2084 7.2617 5.0831 8.5272 6.5253 23.395 18.178 24.393l11.944-1.3364-11.944 1.3364 14.053 17.761c10.44-7.8094 20.553-15.909 34.982-20.172z" stroke="#fff"/>
<path d="m690 653c-9.2933-3.6327-22.71 1.8068-25.859-15.344-5.207 1.3695-11.23 12.441 0.85904 15.344 10.386 2.4936 25 0 25 0z" fill="#e20909" stroke="#000"/>
<path d="m686.09 662.51c-1.1801 3.7532-4.1202 4.6232-6.5793 5 5.0667 2.4123 10.137 0.53713 11.093-5-0.41514 2.6127-1.5866 5.6828-4.514 7.3273 5.9933 0.01507 9.4053-2.5512 8.4207-7.0843l-8.4207-0.24298z" fill="#fff" stroke="#000"/>
<path d="m696 642c1.2012-0.77603 2.3291-0.82491 3.9719-0.48595 0.63311 3.0561 2.3884 4.0922 4.6355 4.243-1.0542-1.5452-1.5349-2.6044-1-4.1496 2.9287 0.4448 5.4872 0.65817 7.3926 3.3926-3.9341 5.435-12.52 4.1757-15-3z" fill="#fff" stroke="#000"/>
</g>
<path d="m9.5938 530.03c30.023 127.23 140.44 223.21 274.44 230.94h34.938c134-7.7239 244.41-103.71 274.44-230.94h-583.81z" fill="#5ab532" fill-rule="evenodd" stroke="#000" stroke-width="4.0474"/>
<path d="m1.5 1.5v458.87c0 166.31 134.31 301.13 300 301.13 165.69 0 300-134.82 300-301.13v-458.87h-600z" fill="url(#a)"/>
<path d="m1.5 1.5v458.87c0 166.31 134.31 301.13 300 301.13 165.69 0 300-134.82 300-301.13v-458.87h-600z" fill="none" stroke="#000" stroke-width="3"/>
</g>
</svg>
